images/icon-how-it-work-3.svg

<svg width="40" height="41" viewBox="0 0 40 41" fill="none" xmlns="http://www.w3.org/2000/svg">
<g clip-path="url(#clip0_107_804)">
<path fill-rule="evenodd" clip-rule="evenodd" d="M13.9759 4.22837C12.806 4.55102 11.9023 5.50618 11.6439 6.69329C11.5752 7.00868 11.5584 8.3079 11.5809 11.5761C11.6144 16.4527 11.6037 16.3327 12.1073 17.4434C12.5351 18.387 13.4861 19.5209 14.1992 19.9379C14.3388 20.0195 14.4531 20.1052 14.4531 20.1284C14.4531 20.1515 14.2159 20.2527 13.9258 20.3532C10.6348 21.4945 7.99875 24.1859 6.86867 27.5591C6.45609 28.7905 6.32414 29.6259 6.27414 31.3222L6.22859 32.8652H5.80609C5.46164 32.8652 5.34804 32.8297 5.19179 32.6734L5 32.4816V22.2402V11.9987L5.19179 11.807L5.38351 11.6152H7.65625H9.92898L10.1207 11.4234C10.3745 11.1697 10.3745 10.8106 10.1207 10.557L9.92898 10.3652H7.64929C6.08789 10.3652 5.26836 10.3951 5.04812 10.4602C4.59429 10.5943 3.96547 11.2363 3.84047 11.6933C3.76601 11.9654 3.74937 14.3973 3.76672 22.455L3.78906 32.8652H2.08632H0.383512L0.181012 33.0677C-0.00773781 33.2564 -0.0185191 33.3056 0.0224184 33.7934C0.129528 35.071 0.88945 36.1196 1.97539 36.4883C2.31601 36.6039 3.91492 36.6152 19.9903 36.6152C34.8458 36.6152 37.6885 36.598 37.9931 36.5063C38.7845 36.2681 39.624 35.3709 39.8365 34.5362C39.8899 34.3261 39.9662 34.0932 40.0059 34.0186C40.0826 33.8745 40.1086 33.1211 40.0343 33.1954C40.0102 33.2195 39.9064 33.1551 39.8035 33.0522C39.6177 32.8663 39.6057 32.8652 37.9137 32.8652H36.2109L36.2323 26.8088L36.2537 20.7524L36.0601 20.5588C35.8045 20.3032 35.4462 20.3024 35.1918 20.557L35 20.7487V26.6152V32.4816L34.8082 32.6734L34.6165 32.8652H31.6936H28.7706L28.7273 31.205C28.6675 28.9141 28.3819 27.6626 27.5305 25.9616C26.2304 23.3643 23.767 21.2119 21.1133 20.3544C20.8017 20.2537 20.5469 20.1522 20.5469 20.1288C20.5469 20.1055 20.6611 20.0195 20.8008 19.9379C21.5139 19.5209 22.4649 18.387 22.8927 17.4434C23.3975 16.3302 23.3859 16.4609 23.4172 11.5125C23.4425 7.50235 23.4313 6.94602 23.3175 6.55157C22.9705 5.34899 22.1535 4.53579 20.9766 4.22133C20.4341 4.07641 14.5054 4.08243 13.9759 4.22837ZM14.0815 5.49516C13.6348 5.65329 13.0942 6.2068 12.9377 6.66633C12.8383 6.95797 12.8125 7.37657 12.8125 8.69938V10.3652H17.5041H22.1957L22.172 8.58782C22.1455 6.58985 22.1143 6.45657 21.543 5.90227C21.0037 5.37883 20.8932 5.36438 17.4666 5.37133C14.9582 5.37641 14.3548 5.39844 14.0815 5.49516ZM17.0668 6.49446C16.9353 6.62594 16.875 6.77329 16.875 6.96321C16.875 7.22829 16.8631 7.24016 16.598 7.24016C16.2402 7.24016 15.9375 7.52657 15.9375 7.86516C15.9375 8.20376 16.2402 8.49016 16.598 8.49016C16.8631 8.49016 16.875 8.50204 16.875 8.76711C16.875 9.12501 17.1614 9.42766 17.5 9.42766C17.8386 9.42766 18.125 9.12501 18.125 8.76711C18.125 8.50204 18.1369 8.49016 18.402 8.49016C18.7598 8.49016 19.0625 8.20376 19.0625 7.86516C19.0625 7.52657 18.7598 7.24016 18.402 7.24016C18.1369 7.24016 18.125 7.22829 18.125 6.96321C18.125 6.60532 17.8386 6.30266 17.5 6.30266C17.3478 6.30266 17.1877 6.37352 17.0668 6.49446ZM27.5168 6.71337C27.1716 6.82399 26.6159 7.32462 26.4356 7.68735C26.3019 7.95665 26.2851 8.26501 26.2437 11.2245C26.2014 14.2382 26.1862 14.5108 26.027 15.0917C25.6872 16.3323 25.1318 17.2127 24.3421 17.7629C23.8343 18.1166 23.6878 18.3857 23.8239 18.7144C23.875 18.8377 24.004 18.9784 24.1105 19.0269C24.3898 19.1541 38.2579 19.1519 38.683 19.0245C39.1116 18.8961 39.5994 18.4487 39.8145 17.9867L39.9984 17.5917V12.8652V8.1386L39.8145 7.7436C39.5994 7.28165 39.1116 6.83422 38.683 6.70587C38.2798 6.58508 27.8953 6.59204 27.5168 6.71337ZM27.6993 8.04946L27.515 8.23368L27.4783 11.3893C27.4455 14.2102 27.4248 14.6152 27.283 15.2089C27.0783 16.0668 26.7764 16.8141 26.3988 17.3984L26.0972 17.8652H32.2318H38.3665L38.5582 17.6734L38.75 17.4816V12.8652V8.24868L38.5582 8.05696L38.3665 7.86516H33.125H27.8835L27.6993 8.04946ZM30.1918 10.557C30.0709 10.6778 30 10.838 30 10.9902C30 11.1423 30.0709 11.3025 30.1918 11.4234L30.3835 11.6152H33.125H35.8665L36.0582 11.4234C36.1791 11.3025 36.25 11.1423 36.25 10.9902C36.25 10.838 36.1791 10.6778 36.0582 10.557L35.8665 10.3652H33.125H30.3835L30.1918 10.557ZM12.8125 13.5558C12.8125 15.2327 12.8335 15.5784 12.9668 16.0999C13.1961 16.9963 13.5373 17.5796 14.2549 18.3014C14.9819 19.0327 15.6655 19.4172 16.6128 19.628C18.8185 20.1187 21.2092 18.6706 21.9715 16.382C22.1252 15.9205 22.1437 15.6743 22.1698 13.7441L22.1987 11.6152H17.5056H12.8125V13.5558ZM30.1918 14.307C30.0709 14.4278 30 14.588 30 14.7402C30 14.8923 30.0709 15.0525 30.1918 15.1734L30.3835 15.3652H32.5H34.6165L34.8082 15.1734C34.9291 15.0525 35 14.8923 35 14.7402C35 14.588 34.9291 14.4278 34.8082 14.307L34.6165 14.1152H32.5H30.3835L30.1918 14.307ZM16.4844 21.0366C16.3769 21.0564 16.0553 21.1094 15.7696 21.1543L15.2502 21.236L15.0089 21.7756C14.813 22.2135 14.2187 24.0457 14.2187 24.2114C14.2187 24.2351 14.3155 24.2784 14.4336 24.3075C15.0288 24.4545 15.7036 25.0862 16.0368 25.8081C16.2036 26.1696 16.212 26.2913 16.2354 28.7037L16.2598 31.2219L16.0631 31.4185C15.89 31.5916 15.8002 31.6152 15.3125 31.6152C14.8285 31.6152 14.7343 31.5909 14.5668 31.4234C14.313 31.1697 14.313 30.8106 14.5668 30.557C14.6723 30.4515 14.8129 30.3652 14.8793 30.3652C14.9849 30.3652 14.9998 30.1281 14.9983 28.4706C14.9968 26.7959 14.9798 26.5399 14.8523 26.2636C14.4131 25.312 13.1323 25.0636 12.3541 25.7791C11.9202 26.1779 11.8786 26.4126 11.8767 28.4706C11.8752 30.1281 11.8901 30.3652 11.9957 30.3652C12.0621 30.3652 12.2027 30.4515 12.3082 30.557C12.5619 30.8106 12.5619 31.1697 12.3082 31.4234C12.1407 31.5909 12.0465 31.6152 11.5625 31.6152C11.0748 31.6152 10.985 31.5916 10.8119 31.4185L10.6152 31.2219L10.6396 28.7037C10.6629 26.3063 10.6723 26.1677 10.8348 25.8157C11.1922 25.042 11.737 24.5447 12.5179 24.2793C12.8766 24.1574 12.9309 24.1089 13.0145 23.8358C13.066 23.6672 13.2199 23.1654 13.3563 22.7207C13.4927 22.276 13.5866 21.8945 13.5649 21.8727C13.5432 21.8511 13.2412 21.9848 12.8937 22.17C11.0289 23.1636 9.42093 24.872 8.48203 26.8573C7.79429 28.3114 7.50117 29.7496 7.50046 31.6738L7.5 32.8652H17.5119H27.5237L27.4792 31.3613C27.4137 29.1458 27.1443 27.9876 26.3209 26.3808C25.8289 25.4206 25.0813 24.4331 24.2899 23.6979C23.6729 23.1246 22.6038 22.3447 22.5327 22.4159C22.513 22.4356 22.5823 22.8042 22.6866 23.2352C22.7909 23.6661 22.9183 24.2788 22.9695 24.5966C23.0627 25.1736 23.0633 25.1747 23.3895 25.3097C24.1983 25.6442 24.6894 26.3567 24.7487 27.282C24.7802 27.7712 24.7573 27.9032 24.5687 28.3234C23.7582 30.1295 21.2503 30.1545 20.3912 28.3648C20.136 27.8333 20.1298 27.0399 20.3765 26.498C20.5941 26.0201 21.0826 25.5073 21.4993 25.3194C21.8097 25.1794 21.8101 25.1786 21.7602 24.823C21.6661 24.1536 21.3332 22.8733 21.0876 22.2363C20.8056 21.5053 20.766 21.4778 19.6171 21.2153C18.9669 21.0668 16.9468 20.9516 16.4844 21.0366ZM21.9432 26.5123C21.4781 26.8009 21.3271 27.3638 21.5803 27.8645C21.7229 28.1464 21.8309 28.2453 22.1289 28.3673C22.4965 28.5177 22.5035 28.5177 22.8673 28.3668C23.1103 28.2662 23.2859 28.127 23.3858 27.9559C23.6771 27.457 23.5111 26.7381 23.0494 26.4993C22.7509 26.3448 22.2026 26.3513 21.9432 26.5123ZM0.0234341 33.6464C0.0234341 33.8827 0.0380434 33.9794 0.0559341 33.8613C0.0738247 33.7431 0.0738247 33.5497 0.0559341 33.4316C0.0380434 33.3134 0.0234341 33.4101 0.0234341 33.6464ZM1.32812 34.1845C1.32812 34.3397 1.85375 35.0213 2.1014 35.1873L2.36687 35.3652H19.9764C39.1795 35.3652 37.7715 35.3993 38.2137 34.9229C38.3991 34.7233 38.6719 34.2679 38.6719 34.1581C38.6719 34.1345 30.2695 34.1152 20 34.1152C9.19023 34.1152 1.32812 34.1443 1.32812 34.1845Z" fill="#1E84B5"/>
<path fill-rule="evenodd" clip-rule="evenodd" d="M27.5169 6.71352C27.1717 6.82414 26.616 7.32477 26.4357 7.6875C26.302 7.9568 26.2852 8.26516 26.2438 11.2247C26.2015 14.2384 26.1863 14.5109 26.0271 15.0919C25.6873 16.3325 25.1319 17.2129 24.3422 17.763C23.8344 18.1168 23.6879 18.3859 23.824 18.7145C23.8751 18.8379 24.0041 18.9785 24.1106 19.027C24.3898 19.1543 38.258 19.152 38.6831 19.0246C39.1116 18.8963 39.5995 18.4488 39.8146 17.9869L39.9985 17.5919V12.8653V8.13875L39.8146 7.74375C39.5995 7.2818 39.1116 6.83438 38.6831 6.70602C38.2799 6.58524 27.8954 6.59219 27.5169 6.71352ZM27.6994 8.04961L27.5151 8.23383L27.4784 11.3895C27.4456 14.2104 27.4249 14.6154 27.2831 15.2091C27.0784 16.067 26.7765 16.8143 26.3989 17.3985L26.0973 17.8653H32.2319H38.3666L38.5583 17.6735L38.7501 17.4818V12.8653V8.24883L38.5583 8.05711L38.3666 7.86531H33.1251H27.8836L27.6994 8.04961ZM30.1919 10.5571C30.0709 10.678 30.0001 10.8381 30.0001 10.9903C30.0001 11.1425 30.0709 11.3027 30.1919 11.4235L30.3836 11.6153H33.1251H35.8666L36.0583 11.4235C36.1792 11.3027 36.2501 11.1425 36.2501 10.9903C36.2501 10.8381 36.1792 10.678 36.0583 10.5571L35.8666 10.3653H33.1251H30.3836L30.1919 10.5571ZM30.1919 14.3071C30.0709 14.428 30.0001 14.5881 30.0001 14.7403C30.0001 14.8925 30.0709 15.0527 30.1919 15.1735L30.3836 15.3653H32.5001H34.6166L34.8083 15.1735C34.9292 15.0527 35.0001 14.8925 35.0001 14.7403C35.0001 14.5881 34.9292 14.428 34.8083 14.3071L34.6166 14.1153H32.5001H30.3836L30.1919 14.3071Z" fill="#0E384C"/>
</g>
<defs>
<clipPath id="clip0_107_804">
<rect width="40" height="40" fill="white" transform="translate(0 0.365234)"/>
</clipPath>
</defs>
</svg>

<svg xmlns="http://www.w3.org/2000/svg" width="40" height="41" fill="none" viewBox="0 0 40 41"><g fill-rule="evenodd" clip-path="url(#a)" clip-rule="evenodd"><path fill="#1e84b5" d="M13.976 4.228a3.29 3.29 0 0 0-2.332 2.465c-.069.316-.086 1.615-.063 4.883.033 4.877.023 4.757.526 5.867.428.944 1.38 2.078 2.092 2.495.14.082.254.167.254.19s-.237.125-.527.225c-3.291 1.141-5.927 3.833-7.057 7.206-.413 1.232-.545 2.067-.595 3.763l-.045 1.543h-.423c-.344 0-.458-.035-.614-.192L5 32.482V11.999l.192-.192.192-.192h4.545l.192-.192a.59.59 0 0 0 0-.866l-.192-.192h-2.28c-1.561 0-2.38.03-2.6.095-.455.134-1.084.776-1.209 1.233-.074.272-.09 2.704-.073 10.762l.022 10.41H.384l-.203.203c-.189.188-.2.238-.159.725.108 1.278.867 2.327 1.953 2.695.341.116 1.94.127 18.015.127 14.856 0 17.699-.017 18.003-.109.791-.238 1.631-1.135 1.843-1.97.054-.21.13-.443.17-.517.077-.145.103-.898.028-.824-.024.024-.128-.04-.23-.143-.186-.186-.198-.187-1.89-.187H36.21l.021-6.056.022-6.057-.194-.193a.59.59 0 0 0-.868-.002l-.192.192v11.733l-.192.191-.191.192H28.77l-.044-1.66c-.06-2.29-.345-3.542-1.197-5.243-1.3-2.598-3.763-4.75-6.417-5.608-.311-.1-.566-.202-.566-.225 0-.024.114-.11.254-.191.713-.417 1.664-1.551 2.092-2.495.505-1.113.493-.982.524-5.93.025-4.01.014-4.567-.1-4.961-.346-1.203-1.163-2.016-2.34-2.33-.543-.146-6.472-.14-7.001.006m.105 1.267c-.446.158-.987.712-1.143 1.171-.1.292-.126.71-.126 2.033v1.666h9.384l-.024-1.777c-.027-1.998-.058-2.131-.629-2.686-.54-.523-.65-.538-4.076-.53-2.509.004-3.112.026-3.385.123m2.986 1a.62.62 0 0 0-.192.468c0 .265-.012.277-.277.277-.358 0-.66.287-.66.625 0 .339.302.625.66.625.265 0 .277.012.277.277 0 .358.286.66.625.66s.625-.302.625-.66c0-.265.012-.277.277-.277.358 0 .66-.286.66-.625 0-.338-.302-.625-.66-.625-.265 0-.277-.012-.277-.277 0-.358-.286-.66-.625-.66a.63.63 0 0 0-.433.191m10.45.218c-.345.111-.901.612-1.081.974-.134.27-.15.578-.192 3.538-.043 3.013-.058 3.286-.217 3.867-.34 1.24-.895 2.12-1.685 2.67-.508.355-.654.624-.518.952.051.124.18.264.286.313.28.127 14.148.125 14.573-.003.429-.128.916-.575 1.132-1.037l.183-.395V8.139l-.183-.395c-.216-.462-.703-.91-1.132-1.038-.403-.12-10.788-.114-11.166.007m.182 1.336-.184.185-.037 3.155c-.033 2.821-.053 3.226-.195 3.82-.205.858-.507 1.605-.884 2.19l-.302.466h12.27l.191-.192.192-.191V8.249l-.192-.192-.191-.192H27.884zm2.493 2.508a.63.63 0 0 0-.192.433c0 .152.07.313.192.433l.192.192h5.483l.191-.192a.63.63 0 0 0 .192-.433.63.63 0 0 0-.192-.433l-.191-.192h-5.483zm-17.38 2.999c0 1.677.022 2.022.155 2.544.23.896.57 1.48 1.288 2.201.727.732 1.41 1.116 2.358 1.327 2.206.49 4.596-.957 5.358-3.246.154-.462.173-.708.199-2.638l.029-2.129h-9.386zm17.38.751a.63.63 0 0 0-.192.433c0 .152.07.313.192.433l.192.192h4.233l.191-.192A.63.63 0 0 0 35 14.74a.63.63 0 0 0-.192-.433l-.191-.192h-4.233zm-13.708 6.73c-.107.02-.429.072-.714.117l-.52.082-.241.54c-.196.438-.79 2.27-.79 2.435 0 .024.097.067.215.097.595.146 1.27.778 1.603 1.5.167.362.175.483.198 2.896l.025 2.518-.197.197c-.173.173-.263.196-.75.196-.485 0-.579-.024-.746-.192a.59.59 0 0 1 0-.866c.105-.105.246-.192.312-.192.106 0 .12-.237.12-1.894-.002-1.675-.02-1.931-.147-2.207-.439-.952-1.72-1.2-2.498-.485-.434.399-.475.634-.477 2.692-.002 1.657.013 1.894.119 1.894.066 0 .207.087.312.192a.59.59 0 0 1 0 .866c-.167.168-.261.192-.745.192-.488 0-.578-.023-.751-.196l-.197-.197.025-2.518c.023-2.398.032-2.536.195-2.888.357-.774.902-1.271 1.683-1.537.359-.122.413-.17.496-.443l.342-1.115c.137-.445.23-.826.209-.848s-.324.112-.671.297c-1.865.994-3.473 2.702-4.412 4.687-.688 1.454-.98 2.893-.982 4.817v1.191h20.024l-.045-1.504c-.065-2.215-.335-3.373-1.158-4.98a10.2 10.2 0 0 0-2.031-2.683c-.617-.573-1.686-1.353-1.757-1.282-.02.02.05.388.154.82.104.43.231 1.043.282 1.36.094.578.094.579.42.714.81.334 1.3 1.047 1.36 1.972.031.49.008.621-.18 1.041-.81 1.806-3.319 1.831-4.178.042-.255-.532-.261-1.325-.014-1.867.217-.478.706-.99 1.122-1.179.31-.14.311-.14.261-.496-.094-.67-.427-1.95-.672-2.587-.282-.73-.322-.758-1.47-1.02-.651-.15-2.671-.264-3.134-.18m5.46 5.475c-.466.289-.617.852-.364 1.352.143.282.25.381.549.503.367.15.374.15.738 0 .243-.1.419-.24.519-.411.291-.499.125-1.218-.337-1.457-.298-.154-.846-.148-1.106.013M.023 33.646c0 .237.014.333.032.215a1.7 1.7 0 0 0 0-.43c-.018-.118-.033-.02-.033.215m1.304.538c0 .156.526.837.773 1.003l.266.178h17.61c19.202 0 17.795.034 18.237-.442.185-.2.458-.655.458-.765 0-.023-8.402-.043-18.672-.043-10.81 0-18.672.03-18.672.07"/><path fill="#0e384c" d="M27.517 6.714c-.345.11-.901.61-1.081.973-.134.27-.15.578-.192 3.538-.043 3.013-.058 3.286-.217 3.867-.34 1.24-.895 2.12-1.685 2.671-.508.354-.654.623-.518.951.051.124.18.265.287.313.279.127 14.147.125 14.572-.002.429-.129.916-.576 1.132-1.038l.184-.395V8.139l-.184-.395c-.215-.462-.703-.91-1.132-1.038-.403-.12-10.788-.114-11.166.008m.182 1.336-.184.184-.037 3.156c-.032 2.82-.053 3.225-.195 3.82-.205.857-.507 1.604-.884 2.188l-.302.467h12.27l.191-.191.192-.192V8.249l-.192-.192-.191-.192H27.884zm2.493 2.507a.63.63 0 0 0-.192.433c0 .152.07.313.192.434l.192.191h5.483l.191-.191a.63.63 0 0 0 .192-.434.63.63 0 0 0-.192-.433l-.191-.192h-5.483zm0 3.75a.63.63 0 0 0-.192.433c0 .152.07.313.192.434l.192.191h4.233l.191-.191A.63.63 0 0 0 35 14.74a.63.63 0 0 0-.192-.433l-.191-.192h-4.233z"/></g><defs><clipPath id="a"><path fill="#fff" d="M0 .365h40v40H0z"/></clipPath></defs></svg>
